docs/img/about/link.svg

<svg width="24" height="24" viewBox="0 0 24 24" fill="none" xmlns="http://www.w3.org/2000/svg">
<path d="M22.5712 1.42879C20.6661 -0.476265 17.6031 -0.476265 15.6981 1.42879L10.6553 6.43424L12.2241 8.00311L17.2669 2.99767C18.2755 1.9891 19.9564 1.9891 20.965 2.99767C21.9735 4.00623 21.9735 5.68716 20.965 6.69572L15.1751 12.523C14.1665 13.5315 12.4856 13.5315 11.477 12.523C11.2903 12.3362 11.1409 12.1494 11.0288 11.9253L9.42257 13.5315C9.57198 13.7183 9.7214 13.9051 9.90817 14.0918C11.8132 15.9969 14.8763 15.9969 16.7813 14.0918L22.5712 8.30195C24.4389 6.39689 24.4389 3.33385 22.5712 1.42879ZM12.2241 16.5198L12.1868 16.3704L11.7385 15.9222L6.69572 20.965C5.68716 21.9735 4.00623 21.9735 2.99767 20.965C1.9891 19.9564 1.9891 18.2755 2.99767 17.2669L8.8249 11.477C9.83346 10.4685 11.5144 10.4685 12.523 11.477C12.8218 11.7759 13.0086 12.0747 13.1206 12.4482L14.8016 10.7673C14.6148 10.4685 14.3907 10.1696 14.0918 9.87082C12.1868 7.96576 9.12374 7.96576 7.21868 9.87082L1.42879 15.6981C-0.476265 17.6031 -0.476265 20.6661 1.42879 22.5712C3.33385 24.4763 6.39689 24.4763 8.30195 22.5712L13.3074 17.5284L12.2615 16.4825L12.2241 16.5198Z" fill="#343434"/>
</svg>

<svg width="24" height="24" fill="none" xmlns="http://www.w3.org/2000/svg"><path d="M22.571 1.429a4.847 4.847 0 0 0-6.873 0l-5.043 5.005 1.57 1.57 5.042-5.006c1.009-1.009 2.69-1.009 3.698 0 1.009 1.008 1.009 2.69 0 3.698l-5.79 5.827c-1.009 1.008-2.69 1.008-3.698 0a2.282 2.282 0 0 1-.448-.598l-1.606 1.606c.149.187.298.374.485.56a4.847 4.847 0 0 0 6.873 0l5.79-5.789a4.916 4.916 0 0 0 0-6.873zm-10.347 15.09l-.037-.149-.448-.448-5.043 5.043c-1.009 1.009-2.69 1.009-3.698 0-1.009-1.009-1.009-2.69 0-3.698l5.827-5.79c1.008-1.008 2.69-1.008 3.698 0 .299.299.486.598.598.971l1.68-1.68a4.964 4.964 0 0 0-.71-.897 4.847 4.847 0 0 0-6.872 0l-5.79 5.827a4.847 4.847 0 0 0 0 6.873 4.847 4.847 0 0 0 6.873 0l5.005-5.043-1.046-1.045-.037.037z" fill="#343434"/></svg>
